Front-end/assets/images/icons/pornhub.svg

<svg width="207" height="57" viewBox="0 0 207 57" fill="none" xmlns="http://www.w3.org/2000/svg">
<g clip-path="url(#clip0_10:208)">
<path d="M202.682 0.0180664H118.509C115.895 0.304604 114.448 1.87483 114.191 4.75166V52.2481C114.448 55.1135 115.883 56.6837 118.486 56.9817H202.705C205.308 56.6837 206.743 55.1135 207 52.2481V4.75166C206.743 1.88629 205.296 0.304604 202.682 0.0180664Z" fill="#F7971D"/>
<path d="M198.468 22.1387C197.044 20.5914 195.119 19.5943 193.03 19.1358C192.423 18.9868 191.746 18.8722 190.975 18.8378C188.209 18.6086 184.673 19.6745 183.016 21.0384L183.413 9.92078H176.69V44.3511H182.934V42.4485C184.37 43.5946 186.669 44.9127 190.205 44.9127H190.87C193.823 44.9127 196.333 43.7666 198.398 41.4743C200.464 39.159 201.491 35.8811 201.491 31.6174C201.491 27.4912 200.487 24.3393 198.457 22.1387H198.468ZM193.041 37.841C192.014 39.0788 190.742 39.6977 189.26 39.6977C187.334 39.6977 185.782 38.8267 184.626 37.0616C183.786 35.8352 183.366 33.9211 183.366 31.3308C183.366 28.8322 183.903 26.9755 184.965 25.7376C186.015 24.5113 187.369 23.9038 188.98 23.9038C190.614 23.9038 191.968 24.5227 193.018 25.7835C194.068 27.0442 194.594 29.1073 194.594 31.9498C194.594 34.6318 194.068 36.5917 193.03 37.8295L193.041 37.841ZM165.859 29.9211C165.859 33.4741 165.696 35.7321 165.357 36.649C165.007 37.5659 164.389 38.3338 163.49 38.9413C162.556 39.5717 161.541 39.8582 160.397 39.8582C159.393 39.8582 158.565 39.629 157.911 39.1705C157.257 38.712 156.802 38.0931 156.557 37.3023C156.324 36.5 156.184 34.3681 156.184 30.8495V19.388H149.461V35.2048C149.461 37.543 149.765 39.3768 150.371 40.7063C150.978 42.0359 151.959 43.0789 153.313 43.801C154.666 44.546 156.195 44.9127 157.911 44.9127C158.168 44.9127 158.413 44.9127 158.67 44.8898C162.965 44.7752 165.206 42.8611 166.326 41.6003V44.3511H172.57V19.388H165.847L165.859 29.9211ZM143.917 21.8407C143.299 20.9582 142.365 20.2361 141.116 19.663C139.996 19.1702 138.747 18.8951 137.381 18.8378H137.311C134.475 18.6888 130.857 19.5026 129.165 21.0957V9.92078H122.442V44.3511H129.165V31.8581C129.165 29.7606 129.363 28.1675 129.772 27.1016C130.18 26.0242 130.822 25.2219 131.698 24.6946C132.573 24.156 133.565 23.8923 134.685 23.8923C135.666 23.8923 136.483 24.0986 137.136 24.5113C137.767 24.9239 138.222 25.4855 138.479 26.1961C138.735 26.8838 138.864 28.5572 138.864 31.1704V44.3511H145.575V29.7033C145.575 27.4798 145.458 25.8293 145.224 24.7749C144.991 23.6975 144.571 22.7118 143.941 21.8522L143.917 21.8407ZM106.044 23.3537C105.788 22.2763 105.321 21.2906 104.667 20.4424C104.002 19.5828 103.033 18.8837 101.726 18.3335C100.419 17.7834 99.0183 17.5083 97.4543 17.5083C94.6299 17.3478 90.0315 18.4023 88.6543 20.5685V18.0928H82.0834V44.3396H89.1561V32.4541C89.1561 29.5199 89.3195 27.5256 89.6813 26.4253C90.0315 25.3365 90.7084 24.4769 91.6654 23.7892C92.6575 23.1473 93.7662 22.815 94.98 22.815C95.9137 22.815 96.7307 23.0442 97.431 23.5026C98.0962 23.9611 98.5981 24.603 98.8899 25.4511C99.1933 26.2534 99.3567 28.0872 99.3567 30.9297V44.3167H106.418V28.0299C106.418 26.0013 106.278 24.4425 106.021 23.3537H106.044ZM72.3613 17.6C70.2605 17.8636 68.2764 19.5255 67.401 20.58V18.0928H60.8302V44.3396H67.9029V36.2364C67.9029 31.7664 68.1013 28.8322 68.4865 27.4339C68.8833 26.0356 69.4202 25.0729 70.1204 24.5342C70.7974 23.984 71.6377 23.7319 72.6297 23.7319C73.6568 23.7319 74.7539 24.0986 75.9444 24.8551L78.1385 18.8034C76.6446 17.9324 75.104 17.4968 73.4701 17.4968C73.0966 17.4968 72.7231 17.5312 72.3613 17.5885V17.6ZM43.5335 17.4968C40.9075 17.4968 38.5382 18.0699 36.4141 19.1931C34.3133 20.3393 32.656 21.9783 31.5122 24.1216C30.3451 26.2993 29.7615 28.5228 29.7615 30.838C29.7615 33.8524 30.3451 36.4083 31.5122 38.5172C32.656 40.6032 34.3483 42.1849 36.5775 43.2852C38.795 44.374 41.1292 44.9127 43.5802 44.9127C47.5484 44.9127 50.8163 43.6061 53.4306 41.0158C56.045 38.4255 57.3405 35.1017 57.3405 31.1245C57.3405 27.1932 56.0567 23.9382 53.4657 21.3594C50.898 18.7805 47.5834 17.4968 43.5452 17.4968H43.5335ZM48.2136 37.1877C46.9531 38.5631 45.4126 39.2507 43.5685 39.2507C41.7245 39.2507 40.1839 38.5631 38.9 37.1877C37.6512 35.8123 37.0326 33.8065 37.0326 31.2048C37.0326 28.603 37.6512 26.6202 38.9 25.2219C40.1839 23.8465 41.7245 23.1588 43.5685 23.1588C45.4126 23.1588 46.9531 23.8465 48.2136 25.2219C49.4625 26.5973 50.081 28.5801 50.081 31.1589C50.081 33.7951 49.4625 35.8008 48.2136 37.1877ZM20.8097 8.66001C19.4325 8.29325 16.4914 8.10986 11.9396 8.10986H0V44.3282H7.44621V30.6661H12.3014C15.6861 30.6661 18.2537 30.4942 20.0277 30.1503C21.3349 29.8638 22.6187 29.2907 23.8792 28.4311C25.1397 27.5715 26.2135 26.368 27.0304 24.8551C27.8474 23.3422 28.2559 21.474 28.2559 19.239C28.2559 16.3736 27.5556 14.0125 26.1318 12.1902C24.6962 10.3563 22.9339 9.18724 20.8214 8.63709L20.8097 8.66001ZM19.7476 22.1617C19.1991 22.964 18.4288 23.56 17.4367 23.9382C16.4447 24.3164 14.4839 24.5113 11.5428 24.5113H7.45788V14.2303H11.0759C13.7603 14.2303 15.5343 14.322 16.4213 14.4939C17.6351 14.7002 18.6389 15.2389 19.4208 16.0985C20.2028 16.9467 20.588 18.047 20.588 19.3536C20.588 20.431 20.3195 21.3708 19.771 22.1731" fill="black"/>
</g>
<defs>
<clipPath id="clip0_10:208">
<rect width="207" height="57" fill="white"/>
</clipPath>
</defs>
</svg>

<svg width="207" height="57" fill="none" xmlns="http://www.w3.org/2000/svg"><g clip-path="url(#clip0_10:208)"><path d="M202.682.018h-84.173c-2.614.287-4.061 1.857-4.318 4.734v47.496c.257 2.866 1.692 4.436 4.295 4.734h84.219c2.603-.298 4.038-1.868 4.295-4.734V4.752c-.257-2.866-1.704-4.447-4.318-4.734z" fill="#F7971D"/><path d="M198.468 22.139c-1.424-1.548-3.349-2.545-5.438-3.003a10.492 10.492 0 00-2.055-.298c-2.766-.23-6.302.836-7.959 2.2l.397-11.117h-6.723v34.43h6.244V42.45c1.436 1.146 3.735 2.464 7.271 2.464h.665c2.953 0 5.463-1.146 7.528-3.439 2.066-2.315 3.093-5.593 3.093-9.857 0-4.126-1.004-7.278-3.034-9.478h.011zm-5.427 15.702c-1.027 1.238-2.299 1.857-3.781 1.857-1.926 0-3.478-.871-4.634-2.636-.84-1.227-1.26-3.14-1.26-5.731 0-2.499.537-4.355 1.599-5.593 1.05-1.227 2.404-1.834 4.015-1.834 1.634 0 2.988.619 4.038 1.88 1.05 1.26 1.576 3.323 1.576 6.166 0 2.682-.526 4.642-1.564 5.88l.011.011zm-27.182-7.92c0 3.553-.163 5.811-.502 6.728-.35.917-.968 1.685-1.867 2.292-.934.63-1.949.917-3.093.917-1.004 0-1.832-.229-2.486-.688a3.47 3.47 0 01-1.354-1.868c-.233-.802-.373-2.934-.373-6.453v-11.46h-6.723v15.817c0 2.338.304 4.172.91 5.501.607 1.33 1.588 2.373 2.942 3.095 1.353.745 2.882 1.112 4.598 1.112.257 0 .502 0 .759-.023 4.295-.115 6.536-2.029 7.656-3.29v2.751h6.244V19.388h-6.723l.012 10.533zm-21.942-8.08c-.618-.883-1.552-1.605-2.801-2.178-1.12-.493-2.369-.768-3.735-.825h-.07c-2.836-.15-6.454.665-8.146 2.258V9.92h-6.723v34.43h6.723V31.858c0-2.097.198-3.69.607-4.756.408-1.078 1.05-1.88 1.926-2.407.875-.539 1.867-.803 2.987-.803.981 0 1.798.207 2.451.62a3.326 3.326 0 011.343 1.684c.256.688.385 2.361.385 4.974v13.181h6.711V29.703c0-2.223-.117-3.874-.351-4.928-.233-1.077-.653-2.063-1.283-2.923l-.024-.011zm-37.873 1.513a7.637 7.637 0 00-1.377-2.912c-.665-.86-1.634-1.558-2.941-2.108s-2.708-.826-4.272-.826c-2.824-.16-7.422.894-8.8 3.06v-2.475h-6.57V44.34h7.072V32.454c0-2.934.163-4.928.525-6.029.35-1.088 1.027-1.948 1.984-2.636a5.992 5.992 0 013.315-.974c.934 0 1.75.23 2.451.688.665.458 1.167 1.1 1.459 1.948.303.802.467 2.636.467 5.479v13.387h7.061V28.03c0-2.029-.14-3.588-.397-4.676h.023zM72.361 17.6c-2.1.264-4.085 1.925-4.96 2.98v-2.487h-6.57V44.34h7.072v-8.104c0-4.47.198-7.404.584-8.802.396-1.398.933-2.361 1.633-2.9.677-.55 1.518-.802 2.51-.802 1.027 0 2.124.367 3.314 1.123l2.194-6.052c-1.493-.87-3.034-1.306-4.668-1.306-.373 0-.747.034-1.109.091v.012zm-28.828-.103c-2.626 0-4.995.573-7.119 1.696-2.1 1.146-3.758 2.785-4.902 4.929-1.167 2.177-1.75 4.4-1.75 6.716 0 3.014.583 5.57 1.75 7.68 1.144 2.085 2.836 3.667 5.066 4.767a15.683 15.683 0 007.002 1.628c3.968 0 7.236-1.307 9.85-3.897 2.615-2.59 3.91-5.914 3.91-9.891 0-3.932-1.283-7.187-3.874-9.766-2.568-2.579-5.883-3.862-9.92-3.862h-.013zm4.68 19.69c-1.26 1.376-2.8 2.064-4.645 2.064-1.843 0-3.384-.688-4.668-2.063-1.249-1.376-1.867-3.382-1.867-5.983 0-2.602.618-4.585 1.867-5.983 1.284-1.376 2.825-2.063 4.669-2.063 1.844 0 3.384.688 4.645 2.063 1.248 1.375 1.867 3.358 1.867 5.937 0 2.636-.619 4.642-1.867 6.029zM20.81 8.66c-1.377-.367-4.319-.55-8.87-.55H0v36.218h7.446V30.666h4.855c3.385 0 5.953-.172 7.727-.516 1.307-.286 2.59-.86 3.851-1.719 1.26-.86 2.334-2.063 3.151-3.576.817-1.513 1.226-3.381 1.226-5.616 0-2.865-.7-5.227-2.124-7.049-1.436-1.834-3.198-3.003-5.31-3.553l-.012.023zm-1.062 13.502c-.549.802-1.32 1.398-2.311 1.776-.992.378-2.953.573-5.894.573H7.458v-10.28h3.618c2.684 0 4.458.091 5.345.263 1.214.206 2.218.745 3 1.605.782.848 1.167 1.948 1.167 3.255 0 1.077-.268 2.017-.817 2.82" fill="#000"/></g><defs><clipPath id="clip0_10:208"><path fill="#fff" d="M0 0h207v57H0z"/></clipPath></defs></svg>
